teeny/solid/question-small.svg

<svg width="15" height="15" viewBox="0 0 15 15" fill="none" xmlns="http://www.w3.org/2000/svg">
<path fill-rule="evenodd" clip-rule="evenodd" d="M5.5 6C5.5 4.89543 6.39543 4 7.5 4H8.1C9.14934 4 10 4.85066 10 5.9V6C10 7.10457 9.10457 8 8 8V9H7V7H8C8.55228 7 9 6.55228 9 6V5.9C9 5.40294 8.59706 5 8.1 5H7.5C6.94772 5 6.5 5.44772 6.5 6H5.5ZM8 10V11H7V10H8Z" fill="black"/>
</svg>

<svg viewBox="0 0 15 15" xmlns="http://www.w3.org/2000/svg"><path fill-rule="evenodd" d="M5.5 6c0-1.11.89-2 2-2h.6c1.04 0 1.9.85 1.9 1.9V6c0 1.1-.9 2-2 2v1H7V7h1c.55 0 1-.45 1-1v-.1c0-.5-.41-.9-.9-.9h-.6c-.56 0-1 .44-1 1h-1ZM8 10v1H7v-1h1Z"/></svg>
